svg/movie_check_outline.svg

<svg xmlns="http://www.w3.org/2000/svg" viewBox="0 0 24 24"><path d="M13 19c0 .34.04.67.09 1H4a2 2 0 0 1-2-2V6a2 2 0 0 1 2-2h1l2 4h3L8 4h2l2 4h3l-2-4h2l2 4h3l-2-4h4v9.81c-.61-.35-1.28-.59-2-.72V10H5.76L4 6.47V18h9.09c-.05.33-.09.66-.09 1m8.34-3.16-3.59 3.59-1.59-1.59L15 19l2.75 3 4.75-4.75z"/></svg>

<?xml version="1.0" encoding="UTF-8"?><!DOCTYPE svg PUBLIC "-//W3C//DTD SVG 1.1//EN" "http://www.w3.org/Graphics/SVG/1.1/DTD/svg11.dtd"><svg xmlns="http://www.w3.org/2000/svg" xmlns:xlink="http://www.w3.org/1999/xlink" version="1.1" id="mdi-movie-check-outline" width="24" height="24" viewBox="0 0 24 24"><path d="M13 19C13 19.34 13.04 19.67 13.09 20H4C2.9 20 2 19.11 2 18V6C2 4.89 2.9 4 4 4H5L7 8H10L8 4H10L12 8H15L13 4H15L17 8H20L18 4H22V13.81C21.39 13.46 20.72 13.22 20 13.09V10H5.76L4 6.47V18H13.09C13.04 18.33 13 18.66 13 19M21.34 15.84L17.75 19.43L16.16 17.84L15 19L17.75 22L22.5 17.25L21.34 15.84Z" /></svg>
